X:68
T:Saxon Waltz
O:No 68  pages 30-31 Wm Clarke MS  Feltwell, Norfolk
I:abc2nwc
M:3/8
L:1/16
K:C
z2|e4d2|c4ce|df Bd ce|G2 G2 G2|
e4d2|c4ce|df Bd GB|c4:|
|:ce|df Bd ce|df Bd ce|df Bd ce|
G2 G2 G2|e4d2|c4ce|df Bd GB|c4:|
|:G2|cB cd ef|g2 e2 g2|ag ab c'a|(ag) eg (ag)|
(gf) df (gf)|(fe) ce (fe)|de fd cB|c4:|
|:g2|(fg) dg fg|(eg) cg eg|(fg) dg fg|(eg) cg eg|
fg dg fg|eg c'b ag|a3 f dB|c4:|




